img/svg/net/firebird.svg

<?xml version="1.0" encoding="iso-8859-1"?>
<!-- Generator: Adobe Illustrator 21.0.2, SVG Export Plug-In . SVG Version: 6.00 Build 0)  -->
<svg version="1.1" id="&#x56FE;&#x5C42;_1" xmlns="http://www.w3.org/2000/svg" xmlns:xlink="http://www.w3.org/1999/xlink" x="0px"
	 y="0px" viewBox="0 0 16 16" style="enable-background:new 0 0 16 16;" xml:space="preserve">
<g>
	<path style="fill-rule:evenodd;clip-rule:evenodd;" d="M3.962,11.939c-4.68-5.27-0.672-10.101,3.51-10.927
		C3.821,1.283,0.998,4.324,0.998,7.981c0,2.878,1.74,5.353,4.229,6.423l0.316,0.159C4.667,13.785,4.095,12.992,3.962,11.939z"/>
	<path style="fill-rule:evenodd;clip-rule:evenodd;" d="M8.292,1c3.165,0.908,4.902,2.492,5.217,4.754
		c0.065,3.111-1.227,4.736-3.872,4.866C8.784,10.508,8.51,9.809,9.038,9.152c0.838-0.947,1.209-1.811,1.115-2.595
		C10.085,6.09,9.551,5.61,8.551,5.114c0.136-0.165,0.481-0.203,1.038-0.118c0.484,0.05,0.637-0.177,0.46-0.675
		c0.142,0.605-0.799,0.516-2.825-0.257c-0.068-0.027-0.136-0.053-0.206-0.08C6.342,3.825,6.083,4.088,6.236,4.766
		C5.864,4.751,5.584,4.778,5.392,4.852c-0.979,0.59-0.95,1.118,0.091,1.581c0.053-0.327,0.386-0.481,1-0.463
		c0.268,0.08,0.445,0.162,0.528,0.245c0.091,0.08,0.165,0.156,0.212,0.233c0.115,0.174,0.115,0.348,0,0.522
		C7.112,7.143,6.882,7.314,6.54,7.482c-1.513,0.487-2.315,1.333-2.412,2.536v0.507c0,0.009,0.003,0.018,0.003,0.027
		c0.156,1.498,0.581,2.536,1.206,3.185c0.354,0.351,1.079,0.855,1.887,1.106c0.348,0.109,0.705,0.171,1.062,0.153
		c3.778-0.171,6.686-3.156,6.686-7.016C14.972,4.244,12.025,1.165,8.292,1z M7.224,4.772H6.858C6.793,4.477,6.914,4.403,7.224,4.548
		C7.333,4.595,7.46,4.672,7.61,4.772H7.224z"/>
</g>
</svg>

<svg xmlns="http://www.w3.org/2000/svg" viewBox="0 0 16 16"><title>firebird</title><path d="M4,11.94C-.72,6.67,3.29,1.84,7.47,1A7,7,0,0,0,5.23,14.4l.32.16A4.16,4.16,0,0,1,4,11.94Z" style="fill-rule:evenodd"/><path d="M8.29,1Q13,2.36,13.51,5.75q.1,4.67-3.87,4.87A.84.84,0,0,1,9,9.15a3.45,3.45,0,0,0,1.11-2.6q-.1-.7-1.6-1.44c.14-.17.48-.2,1-.12s.64-.18.46-.68c.14.6-.8.52-2.83-.26L7,4c-.68-.16-.93.1-.78.78a2.23,2.23,0,0,0-.84.09q-1.47.88.09,1.58c.05-.33.39-.48,1-.46A1.35,1.35,0,0,1,7,6.21a1.08,1.08,0,0,1,.21.23.44.44,0,0,1,0,.52,1.69,1.69,0,0,1-.68.51Q4.27,8.21,4.13,10v.53a5.27,5.27,0,0,0,1.21,3.19,5,5,0,0,0,1.89,1.11A3,3,0,0,0,8.29,15,6.92,6.92,0,0,0,15,8,7,7,0,0,0,8.29,1ZM7.22,4.77H6.86c-.06-.29.06-.37.37-.22a2.62,2.62,0,0,1,.39.22Z" style="fill-rule:evenodd"/></svg>
